!!!COA:	Josquin des Prez
!!!CDT:	~1450-1521/08/27
!!!OTL@@FRE:	Regretz sans fin
!!!AGN:	Chanson
!!!SCT:	NJE 30.9
!!!SCA:	New Josquin Edition 30.9
!!!voices:	6
**kern	**kern	**kern	**kern	**kern	**kern
*staff6	*staff5	*staff4	*staff3	*staff2	*staff1
*Ivox	*Ivox	*Ivox	*Ivox	*Ivox	*Ivox
*I"Bassus	*I"Tenor	*I"Quintus	*I"Contratenor	*I"Sextus	*I"Superius
*I'B	*I'T	*I'Q	*I'Ct	*I'Sx	*I'S
*clefF4	*clefF4	*clefGv2	*clefGv2	*clefGv2	*clefG2
*k[]	*k[]	*k[]	*k[]	*k[]	*k[]
*M2/1	*M2/1	*M2/1	*M2/1	*M2/1	*M2/1
*met(C|)	*met(C|)	*met(C|)	*met(C|)	*met(C|)	*met(C|)
=1-	=1-	=1-	=1-	=1-	=1-
!	!	!	!	!	!LO:TX:Z=6:t=[ABA form&colon; mm. 80-130=mm. 5-55]
!	!LO:TX:Z=10:X=-50:t=Canon at the upper fourth	!	!	!	!
1D	0A	0r	1d	0r	1a
1D	.	.	1d	.	1a
=2	=2	=2	=2	=2	=2
0F	1A	0r	1.c	0r	0a
.	[1c	.	.	.	.
.	.	.	4B\	.	.
.	.	.	4A/	.	.
=3	=3	=3	=3	=3	=3
0E	1c]	0r	0e	0r	0g
.	1B	.	.	.	.
=4	=4	=4	=4	=4	=4
1r	0r	1D	0A	0d	0r
1D	.	1D	.	.	.
=5	=5	=5	=5	=5	=5
0D	0r	1.F	1A	1d	0a
.	.	.	[1d	[1f	.
.	.	4E/	.	.	.
.	.	4D/	.	.	.
=6	=6	=6	=6	=6	=6
1D	0r	2.F/	1d]	1f]	1a
.	.	4G/	.	.	.
1AA	.	1A	1c	1e	1cc
=7	=7	=7	=7	=7	=7
0r	1G	0r	1r	0r	1b
.	1G	.	1d	.	1b
=8	=8	=8	=8	=8	=8
0r	1G	0r	2e\	0r	2b\
.	.	.	2d\	.	2b\
.	[1A	.	2.c\	.	[1cc
.	.	.	4B\	.	.
=9	=9	=9	=9	=9	=9
0r	1A]	0r	4c\	0r	1cc]
.	.	.	4d\	.	.
.	.	.	1e	.	.
.	1F	.	.	.	2.a/
.	.	.	2d\	.	.
.	.	.	.	.	4b\
=10	=10	=10	=10	=10	=10
1AA	1E	2r	1e	1c	4cc\
.	.	.	.	.	4dd\
.	.	1A	.	.	1cc
1F	1r	.	1A	1c	.
.	.	2F/	.	.	4b\
.	.	.	.	.	4a/
=11	=11	=11	=11	=11	=11
1E	0r	1G	2e\	1c	1g
.	.	.	2e\	.	.
[1D	.	1A	[1f	[1d	2f/
.	.	.	.	.	4d/
.	.	.	.	.	4e/
=12	=12	=12	=12	=12	=12
1D]	0r	1A	1f]	1d]	4f/
.	.	.	.	.	4g/
.	.	.	.	.	1a
1E	.	1E	1e	1B	.
.	.	.	.	.	2g#i/
=13	=13	=13	=13	=13	=13
2AA/	0A	0r	2c\	1A	1a
2D\	.	.	2A/	.	.
1D	.	.	1d	1r	2r
.	.	.	.	.	2a/
=14	=14	=14	=14	=14	=14
0F	1A	0r	1.c	0r	1a
.	[1c	.	.	.	1a
.	.	.	4B\	.	.
.	.	.	4A/	.	.
=15	=15	=15	=15	=15	=15
0E	1c]	0r	0e	0r	0g
.	1B	.	.	.	.
=16	=16	=16	=16	=16	=16
1r	0r	1D	0A	0d	0r
1D	.	1D	.	.	.
=17	=17	=17	=17	=17	=17
0D	0r	1.F	1A	1d	0a
.	.	.	[1d	[1f	.
.	.	4E/	.	.	.
.	.	4D/	.	.	.
=18	=18	=18	=18	=18	=18
1D	0r	2.F/	1d]	1f]	1a
.	.	4G/	.	.	.
1AA	.	1A	1c	1e	1cc
=19	=19	=19	=19	=19	=19
1GG	1B	2r	2r	0r	1b
.	.	2D/	2d\	.	.
2D\	2A\	2D/	2f\	.	1r
2D\	2A\	2D/	2f\	.	.
=20	=20	=20	=20	=20	=20
1C	2.c\	1E	1e	0r	0r
.	4B\	.	.	.	.
1D	4A\	1F	1d	.	.
.	4G\	.	.	.	.
.	[2A\	.	.	.	.
=21	=21	=21	=21	=21	=21
0AA	2A\]	0E	0c	0r	0r
.	4G\	.	.	.	.
.	4F\	.	.	.	.
.	1E	.	.	.	.
=22	=22	=22	=22	=22	=22
0r	0r	2r	2r	1e	2r
.	.	2C/	2G/	.	2g/
.	.	2G/	2G/	2d\	2b-\
.	.	2G/	2G/	2d\	2b-i\
=23	=23	=23	=23	=23	=23
0r	0r	1F	1A	2.f\	1a
.	.	.	.	4e\	.
.	.	1G	2.B-i\	4d\	2g/
.	.	.	.	4c\	.
.	.	.	.	[2d\	[2b-i\
.	.	.	4c\	.	.
=24	=24	=24	=24	=24	=24
2r	1r	0D	2d\	2d\]	2b-\]
2D\	.	.	2d\	4c\	4a/
.	.	.	.	4B-i\	4g/
2D\	1A	.	2d\	1A	1f
2D\	.	.	2d\	.	.
=25	=25	=25	=25	=25	=25
1F	2A\	0r	2.c\	0r	0r
.	2A\	.	.	.	.
.	.	.	4A/	.	.
1E	1G	.	1B	.	.
=26	=26	=26	=26	=26	=26
1AA	1A	0r	2A/	0r	0r
.	.	.	2c\	.	.
2C/	1E	.	2c\	.	.
2C/	.	.	2c\	.	.
=27	=27	=27	=27	=27	=27
1GG	1G	0r	2B\	1r	0r
.	.	.	4G/	.	.
.	.	.	4A/	.	.
4GG/	2G\	.	4B\	1d	.
4AA/	.	.	4c\	.	.
4BB/	2G\	.	2B\	.	.
4C/	.	.	.	.	.
=28	=28	=28	=28	=28	=28
2D\	2F\	0r	2A/	2d\	0r
2BB/	4E\	.	2G/	2d\	.
.	4D\	.	.	.	.
1AA	1E	.	1A	1c#i	.
=29	=29	=29	=29	=29	=29
0D	0D	1D	0F	1d	2r
.	.	.	.	.	2a/
.	.	2F/	.	1A	2a/
.	.	2F/	.	.	2a/
=30	=30	=30	=30	=30	=30
0r	0r	2E/	1r	1c	2g/
.	.	2F/	.	.	2a/
.	.	2C/	2r	2c\	2e/
.	.	2C/	2G/	2c\	2g/
=31	=31	=31	=31	=31	=31
0r	0r	2G/	2B\	2B\	2g/
.	.	2E/	2c\	4A/	2g/
.	.	.	.	4G/	.
.	.	1D	1d	1A	4f#i/
.	.	.	.	.	4g/
.	.	.	.	.	4a/
.	.	.	.	.	4f#i/
=32	=32	=32	=32	=32	=32
1GG	1r	1G	2B\	0G	[0g
.	.	.	2d\	.	.
2GG/	1G	2r	2d\	.	.
2GG/	.	2G/	2d\	.	.
=33	=33	=33	=33	=33	=33
0C	1G	2G/	[0e	0r	1g]
.	.	2G/	.	.	.
.	1G	1c	.	.	2r
.	.	.	.	.	2g/
=34	=34	=34	=34	=34	=34
0r	1.c	1C	0e]	0r	2g/
.	.	.	.	.	2g/
.	.	2C/	.	.	1cc
.	2B\	2C/	.	.	.
=35	=35	=35	=35	=35	=35
0r	2A\	2F/	0r	1r	1cc
.	2G\	2E/	.	.	.
.	2F\	2F/	.	1c	1r
.	2E\	2G/	.	.	.
=36	=36	=36	=36	=36	=36
1AA	2.F\	2A/	1r	1c	1a
.	.	2A/	.	.	.
.	4D\	.	.	.	.
2AA/	1E	1A	1A	1c	2cc\
2AA/	.	.	.	.	2cc\
=37	=37	=37	=37	=37	=37
1.D	0D	0F	2A/	1.f	2.a/
.	.	.	2A/	.	.
.	.	.	.	.	4g/
.	.	.	3.F/V	.	4a/
.	.	.	.	.	4b\
2C/	.	.	6G/	2e\	2cc\
.	.	.	3A/Z	.	.
=38	=38	=38	=38	=38	=38
2BB/	0r	0r	3.D/V	2d\	3.f/V
2AA/	.	.	6E/	2c\	6g/
.	.	.	3F/Z	.	3a/Z
2GG/	.	.	2G/	2B\	2d/
2FF/	.	.	2A/	2A/	[2a/
=39	=39	=39	=39	=39	=39
1GG	0r	0r	2D/	2.B\	4a/]
.	.	.	.	.	4g/
.	.	.	2.d\	.	1g
.	.	.	.	4G/	.
1D	.	.	.	1A	.
.	.	.	4c\	.	.
.	.	.	2A/	.	2f#i/
=40	=40	=40	=40	=40	=40
0GG	0r	0r	0B	0G	0g
=41	=41	=41	=41	=41	=41
1D	1D	0r	2r	0r	0r
.	.	.	2f\	.	.
2D\	1A	.	2f\	.	.
2D\	.	.	2f\	.	.
=42	=42	=42	=42	=42	=42
1.C	1A	1c	1.e	0r	0r
.	[1G	2c\	.	.	.
4BB/	.	2c\	4d\	.	.
4AA/	.	.	4c\	.	.
=43	=43	=43	=43	=43	=43
1GG	2G\]	2B\	0d	0r	2r
.	4F\	4A/	.	.	1g
.	4E\	4G/	.	.	.
1r	1D	1A	.	.	.
.	.	.	.	.	2f#i/
=44	=44	=44	=44	=44	=44
0r	0r	2G/	0r	1G	1g
.	.	2G/	.	.	.
.	.	2G/	.	1d	1r
.	.	2G/	.	.	.
=45	=45	=45	=45	=45	=45
0r	0r	2.F/	0r	1d	2r
.	.	.	.	.	2a/
.	.	4E/	.	.	.
.	.	4F/	.	[1c	2a/
.	.	4G/	.	.	.
.	.	4A/	.	.	2a/
.	.	4B\	.	.	.
=46	=46	=46	=46	=46	=46
1r	1r	1c	0r	2c\]	1.g
.	.	.	.	4B\	.
.	.	.	.	4A/	.
1GG	1G	1B	.	1G	.
.	.	.	.	.	4f/
.	.	.	.	.	4e/
=47	=47	=47	=47	=47	=47
2D\	2A\	1A	0r	0r	2f/
2C/	2c\	.	.	.	2e/
1D	2B\	1r	.	.	2f/
.	[2A\	.	.	.	2f/
=48	=48	=48	=48	=48	=48
0D	4A\]	0r	2r	0r	4f/
.	4G\	.	.	.	4e/
.	4F\	.	2d\	.	4d/
.	4E\	.	.	.	4c/
.	1F	.	2d\	.	4d/
.	.	.	.	.	4e/
.	.	.	2d\	.	4f/
.	.	.	.	.	4d/
=49	=49	=49	=49	=49	=49
0AA	0E	1r	1.c	1r	1e
.	.	1A	.	1c	1cc
.	.	.	4B\	.	.
.	.	.	4A/	.	.
=50	=50	=50	=50	=50	=50
0r	0r	2G/	2B\	2d\	2b\
.	.	2C/	2c\	2f\	2a/
.	.	2.G/	2c\	2e\	2cc\
.	.	.	2G/	[2d\	[2b\
.	.	4A/	.	.	.
=51	=51	=51	=51	=51	=51
1r	0r	1F	1d	4d\]	4b\]
.	.	.	.	4c\	4a/
.	.	.	.	4B\	1a
.	.	.	.	4A/	.
1E	.	1E	1e	1B	.
.	.	.	.	.	2g#i/
=52	=52	=52	=52	=52	=52
!	!	!	!	!LO:N:vis=0	!
2.F\	1r	1A	2c\	[0Al	[0al
.	.	.	2c\	.	.
4E\	.	.	.	.	.
2D\	1A	1r	2f\	.	.
2D\	.	.	2f\	.	.
=53	=53	=53	=53	=53	=53
2AA/	2A\	1A	2.e\	0A_	0a_
2AA/	2.c\	.	.	.	.
.	.	.	4d\	.	.
2AA/	.	2c\	2e\	.	.
.	4B\	.	.	.	.
2AA/	[2A\	2c\	[2f\	.	.
=54	=54	=54	=54	=54	=54
1D	4A\]	1d	4f\]	0A_	0a_
.	4G\	.	4e\	.	.
.	4F\	.	4d\	.	.
.	4E\	.	4c\	.	.
1D	1F	2.A/	4d\	.	.
.	.	.	4e\	.	.
.	.	.	4f\	.	.
.	.	4B\	4d\	.	.
=55	=55	=55	=55	=55	=55
0AAl	0El	0cl	0el	0A]	0a]
!!LO:LB:i:g=z
=56||	=56||	=56||	=56||	=56||	=56||
*>B	*>B	*>B	*>B	*>B	*>B
!!section: Tout plasir doncqs ie veulx habandonner
!!!OMD: Tout plasir doncqs ie veulx habandonner
*M2/1	*M2/1	*M2/1	*M2/1	*M2/1	*M2/1
*met(C|)	*met(C|)	*met(C|)	*met(C|)	*met(C|)	*met(C|)
1E	1E	0r	1e	0r	0r
1E	1G	.	2.B\	.	.
.	.	.	4c\	.	.
=57	=57	=57	=57	=57	=57
2.D\	1F	0r	1d	0r	0r
4C/	.	.	.	.	.
2AA/	2E\	.	2e\	.	.
2E\	2G\	.	2B\	.	.
=58	=58	=58	=58	=58	=58
2AA/	2A\	0r	2c\	0r	0r
2E\	2G\	.	2B\	.	.
1AA	1A	.	1c	.	.
=59	=59	=59	=59	=59	=59
1D	1F	2r	1d	1A	1a
.	.	2D/	.	.	.
1AA	1E	1A	1e	1c	1a
=60	=60	=60	=60	=60	=60
0r	0r	1E	0r	1B	1g
.	.	2AA/	.	2A/	2a/
.	.	2A/	.	2c\	2e/
=61	=61	=61	=61	=61	=61
0r	0r	2D/	0r	2d\	2f/
.	.	2A/	.	2c\	2e/
.	.	1D	.	1d	1f
=62	=62	=62	=62	=62	=62
2r	1r	1E	1r	1B	1g
1E	.	.	.	.	.
.	1E	1AA	2r	1A	1a
2C/	.	.	2e\	.	.
=63	=63	=63	=63	=63	=63
1D	1F	0r	1d	0r	0r
2E\	1G	.	1B	.	.
2E\	.	.	.	.	.
=64	=64	=64	=64	=64	=64
2AA/	2A\	0r	2c\	0r	0r
2E\	2G\	.	2B\	.	.
2AA/	2A\	.	2c\	.	.
2E\	2G\	.	2B\	.	.
=65	=65	=65	=65	=65	=65
1AA	1A	1r	1.c	1r	1r
1r	1F	1F	.	1A	2r
.	.	.	4B\	.	2a/
.	.	.	4A/	.	.
=66	=66	=66	=66	=66	=66
0r	1E	1G	0e	1B	1g
.	1r	1A	.	1c	1e
=67	=67	=67	=67	=67	=67
0r	0r	2D/	0r	2d\	2f/
.	.	2A/	.	2c\	2e/
.	.	2D/	.	2d\	2f/
.	.	2A/	.	2c\	2e/
=68	=68	=68	=68	=68	=68
0r	0r	1D	0r	1d	1f
.	.	1E	.	1B	1g
=69	=69	=69	=69	=69	=69
1AA	1E	1AA	2r	1A	1a
.	.	.	2A/	.	.
2D\	2F\	1r	2B\	1r	1r
2C/	2G\	.	2c\	.	.
=70	=70	=70	=70	=70	=70
1F	1A	0r	1d	0r	0r
1E	1B	.	1e	.	.
=71	=71	=71	=71	=71	=71
1.A	1.c	0r	2f\	0r	0r
.	.	.	2f\	.	.
.	.	.	2f\	.	.
2G\	2B\	.	[2e\	.	.
=72	=72	=72	=72	=72	=72
2D\	2A\	2r	2e\]	1A	2r
2F\	2A\	2D/	2.d\	.	2f/
1E	1G	2G/	.	2B\	2g/
.	.	.	4c\	.	.
.	.	2C/	2e\	2c\	2g/
=73	=73	=73	=73	=73	=73
1D	0A	4F/	2f\	1d	4f/
.	.	4G/	.	.	4g/
.	.	2A/	1d	.	4a/
.	.	.	.	.	4b\
1r	.	2AA/	.	1e	1cc
.	.	2A/	2c\	.	.
=74	=74	=74	=74	=74	=74
0r	0r	2D/	2d\	1.f	1.a
.	.	2.F/	2.A/	.	.
.	.	4E/	4B\	.	.
.	.	2C/	2c\	2e\	2g/
=75	=75	=75	=75	=75	=75
0r	0r	2D/	2F/	2d\	2f/
.	.	2BB/	2G/	2d\	2d/
.	.	1AA	1A	1c#i	1e
=76	=76	=76	=76	=76	=76
1D	0A	1D	1D	0d	1a
1D	.	1r	1d	.	1a
=77	=77	=77	=77	=77	=77
0F	1A	0r	1.c	0r	0a
.	[1c	.	.	.	.
.	.	.	4B\	.	.
.	.	.	4A/	.	.
=78	=78	=78	=78	=78	=78
0E	1c]	0r	0e	0r	0g
.	1B	.	.	.	.
=79	=79	=79	=79	=79	=79
1r	0r	1D	0A	0d	0r
1D	.	1D	.	.	.
=80	=80	=80	=80	=80	=80
0D	0r	1.F	1A	1d	0a
.	.	.	[1d	[1f	.
.	.	4E/	.	.	.
.	.	4D/	.	.	.
=81	=81	=81	=81	=81	=81
1D	0r	2.F/	1d]	1f]	1a
.	.	4G/	.	.	.
1AA	.	1A	1c	1e	1cc
=82	=82	=82	=82	=82	=82
0r	1G	0r	1r	0r	1b
.	1G	.	1d	.	1b
=83	=83	=83	=83	=83	=83
0r	1G	0r	2e\	0r	2b\
.	.	.	2d\	.	2b\
.	[1A	.	2.c\	.	[1cc
.	.	.	4B\	.	.
=84	=84	=84	=84	=84	=84
0r	1A]	0r	4c\	0r	1cc]
.	.	.	4d\	.	.
.	.	.	1e	.	.
.	1F	.	.	.	2.a/
.	.	.	2d\	.	.
.	.	.	.	.	4b\
=85	=85	=85	=85	=85	=85
1AA	1E	2r	1e	1c	4cc\
.	.	.	.	.	4dd\
.	.	1A	.	.	1cc
1F	1r	.	1A	1c	.
.	.	2F/	.	.	4b\
.	.	.	.	.	4a/
=86	=86	=86	=86	=86	=86
1E	0r	1G	2e\	1c	1g
.	.	.	2e\	.	.
[1D	.	1A	[1f	[1d	2f/
.	.	.	.	.	4d/
.	.	.	.	.	4e/
=87	=87	=87	=87	=87	=87
1D]	0r	1A	1f]	1d]	4f/
.	.	.	.	.	4g/
.	.	.	.	.	1a
1E	.	1E	1e	1B	.
.	.	.	.	.	2g#i/
=88	=88	=88	=88	=88	=88
2AA/	0A	0r	2c\	1A	1.a
2D\	.	.	2A/	.	.
1D	.	.	1d	1r	.
.	.	.	.	.	2a/
=89	=89	=89	=89	=89	=89
0F	1A	0r	1.c	0r	1a
.	[1c	.	.	.	1a
.	.	.	4B\	.	.
.	.	.	4A/	.	.
=90	=90	=90	=90	=90	=90
0E	1c]	0r	0e	0r	0g
.	1B	.	.	.	.
=91	=91	=91	=91	=91	=91
1r	0r	1D	0A	0d	0r
1D	.	1D	.	.	.
=92	=92	=92	=92	=92	=92
0D	0r	1.F	1A	1d	0a
.	.	.	[1d	[1f	.
.	.	4E/	.	.	.
.	.	4D/	.	.	.
=93	=93	=93	=93	=93	=93
1D	0r	2.F/	1d]	1f]	1a
.	.	4G/	.	.	.
1AA	.	1A	1c	1e	1cc
=94	=94	=94	=94	=94	=94
1GG	1B	2r	2r	0r	1b
.	.	2D/	2d\	.	.
2D\	2A\	2D/	2f\	.	1r
2D\	2A\	2D/	2f\	.	.
=95	=95	=95	=95	=95	=95
1C	2.c\	1E	1e	0r	0r
.	4B\	.	.	.	.
1D	4A\	1F	1d	.	.
.	4G\	.	.	.	.
.	[2A\	.	.	.	.
=96	=96	=96	=96	=96	=96
0AA	2A\]	0E	0c	0r	0r
.	4G\	.	.	.	.
.	4F\	.	.	.	.
.	1E	.	.	.	.
=97	=97	=97	=97	=97	=97
0r	0r	2r	2r	1e	2r
.	.	2C/	2G/	.	2g/
.	.	2G/	2G/	2d\	2b-\
.	.	2G/	2G/	2d\	2b-i\
=98	=98	=98	=98	=98	=98
0r	0r	1F	1A	2.f\	1a
.	.	.	.	4e\	.
.	.	1G	2.B-i\	4d\	2g/
.	.	.	.	4c\	.
.	.	.	.	[2d\	[2b-i\
.	.	.	4c\	.	.
=99	=99	=99	=99	=99	=99
2r	1r	0D	2d\	2d\]	2b-\]
2D\	.	.	2d\	4c\	4a/
.	.	.	.	4B-i\	4g/
2D\	1A	.	2d\	1A	1f
2D\	.	.	2d\	.	.
=100	=100	=100	=100	=100	=100
1F	2A\	0r	2.c\	0r	0r
.	2A\	.	.	.	.
.	.	.	4A/	.	.
1E	1G	.	1B	.	.
=101	=101	=101	=101	=101	=101
1AA	1A	0r	2A/	0r	0r
.	.	.	2c\	.	.
2C/	1E	.	2c\	.	.
2C/	.	.	2c\	.	.
=102	=102	=102	=102	=102	=102
1GG	1G	0r	2B\	1r	0r
.	.	.	4G/	.	.
.	.	.	4A/	.	.
4GG/	2G\	.	4B\	1d	.
4AA/	.	.	4c\	.	.
4BB/	2G\	.	2B\	.	.
4C/	.	.	.	.	.
=103	=103	=103	=103	=103	=103
2D\	2F\	0r	2A/	2d\	0r
2BB/	4E\	.	2G/	2d\	.
.	4D\	.	.	.	.
1AA	1E	.	1A	1c	.
=104	=104	=104	=104	=104	=104
0D	0D	1D	0F	1d	2r
.	.	.	.	.	2a/
.	.	2F/	.	1A	2a/
.	.	2F/	.	.	2a/
=105	=105	=105	=105	=105	=105
0r	0r	2E/	1r	1c	2g/
.	.	2F/	.	.	2a/
.	.	2C/	2r	2c\	2e/
.	.	2C/	2G/	2c\	2g/
=106	=106	=106	=106	=106	=106
0r	0r	2G/	2B\	2B\	2g/
.	.	2E/	2c\	4A/	2g/
.	.	.	.	4G/	.
.	.	1D	1d	1A	4f#i/
.	.	.	.	.	4g/
.	.	.	.	.	4a/
.	.	.	.	.	4f#i/
=107	=107	=107	=107	=107	=107
1GG	1r	1G	2B\	0G	[0g
.	.	.	2d\	.	.
2GG/	1G	2r	2d\	.	.
2GG/	.	2G/	2d\	.	.
=108	=108	=108	=108	=108	=108
0C	1G	2G/	[0e	0r	1g]
.	.	2G/	.	.	.
.	1G	1c	.	.	2r
.	.	.	.	.	2g/
=109	=109	=109	=109	=109	=109
0r	1.c	1C	0e]	0r	2g/
.	.	.	.	.	2g/
.	.	2C/	.	.	1cc
.	2B\	2C/	.	.	.
=110	=110	=110	=110	=110	=110
0r	2A\	2F/	0r	1r	1cc
.	2G\	2E/	.	.	.
.	2F\	2F/	.	1c	1r
.	2E\	2G/	.	.	.
=111	=111	=111	=111	=111	=111
1AA	2.F\	2A/	1r	1c	1a
.	.	2A/	.	.	.
.	4D\	.	.	.	.
2AA/	1E	1A	1A	1c	2cc\
2AA/	.	.	.	.	2cc\
=112	=112	=112	=112	=112	=112
1.D	0D	0F	2A/	1.f	2.a/
.	.	.	2A/	.	.
.	.	.	.	.	4g/
.	.	.	3.F/V	.	4a/
.	.	.	.	.	4b\
2C/	.	.	6G/	2e\	2cc\
.	.	.	3A/Z	.	.
=113	=113	=113	=113	=113	=113
2BB/	0r	0r	3.D/V	2d\	3.f/V
2AA/	.	.	6E/	2c\	6g/
.	.	.	3F/Z	.	3a/Z
2GG/	.	.	2G/	2B\	2d/
2FF/	.	.	2A/	2A/	[2a/
=114	=114	=114	=114	=114	=114
1GG	0r	0r	2D/	2.B\	4a/]
.	.	.	.	.	4g/
.	.	.	2.d\	.	1g
.	.	.	.	4G/	.
1D	.	.	.	1A	.
.	.	.	4c\	.	.
.	.	.	2A/	.	2f#i/
=115	=115	=115	=115	=115	=115
0GG	0r	0r	0B	0G	0g
=116	=116	=116	=116	=116	=116
1D	1D	0r	2r	0r	0r
.	.	.	2f\	.	.
2D\	1A	.	2f\	.	.
2D\	.	.	2f\	.	.
=117	=117	=117	=117	=117	=117
1.C	1A	1c	1.e	0r	0r
.	[1G	2c\	.	.	.
4BB/	.	2c\	4d\	.	.
4AA/	.	.	4c\	.	.
=118	=118	=118	=118	=118	=118
1GG	2G\]	2B\	0d	0r	2r
.	4F\	4A/	.	.	1g
.	4E\	4G/	.	.	.
1r	1D	1A	.	.	.
.	.	.	.	.	2f#i/
=119	=119	=119	=119	=119	=119
0r	0r	2G/	0r	1G	1g
.	.	2G/	.	.	.
.	.	2G/	.	1d	1r
.	.	2G/	.	.	.
=120	=120	=120	=120	=120	=120
0r	0r	2.F/	0r	1d	2r
.	.	.	.	.	2a/
.	.	4E/	.	.	.
.	.	4F/	.	[1c	2a/
.	.	4G/	.	.	.
.	.	4A/	.	.	2a/
.	.	4B\	.	.	.
=121	=121	=121	=121	=121	=121
1r	1r	1c	0r	2c\]	1.g
.	.	.	.	4B\	.
.	.	.	.	4A/	.
1GG	1G	1B	.	1G	.
.	.	.	.	.	4f/
.	.	.	.	.	4e/
=122	=122	=122	=122	=122	=122
2D\	2A\	1A	0r	0r	2f/
2C/	2c\	.	.	.	2e/
1D	2B\	1r	.	.	2f/
.	[2A\	.	.	.	2f/
=123	=123	=123	=123	=123	=123
0D	4A\]	0r	2r	0r	4f/
.	4G\	.	.	.	4e/
.	4F\	.	2d\	.	4d/
.	4E\	.	.	.	4c/
.	1F	.	2d\	.	4d/
.	.	.	.	.	4e/
.	.	.	2d\	.	4f/
.	.	.	.	.	4d/
=124	=124	=124	=124	=124	=124
0AA	0E	1r	1.c	1r	1e
.	.	1A	.	1c	1cc
.	.	.	4B\	.	.
.	.	.	4A/	.	.
=125	=125	=125	=125	=125	=125
0r	0r	2G/	2B\	2d\	2b\
.	.	2C/	2c\	2f\	2a/
.	.	2.G/	2c\	2e\	2cc\
.	.	.	2G/	[2d\	[2b\
.	.	4A/	.	.	.
=126	=126	=126	=126	=126	=126
1r	0r	1F	1d	4d\]	4b\]
.	.	.	.	4c\	4a/
.	.	.	.	4B\	1a
.	.	.	.	4A/	.
1E	.	1E	1e	1B	.
.	.	.	.	.	2g#i/
=127	=127	=127	=127	=127	=127
!	!	!	!	!LO:N:vis=0	!
2.F\	1r	1A	2c\	[0Al	[0al
.	.	.	2c\	.	.
4E\	.	.	.	.	.
2D\	1A	1r	2f\	.	.
2D\	.	.	2f\	.	.
=128	=128	=128	=128	=128	=128
2AA/	2A\	1A	2.e\	0A_	0a_
2AA/	2.c\	.	.	.	.
.	.	.	4d\	.	.
2AA/	.	2c\	2e\	.	.
.	4B\	.	.	.	.
2AA/	[2A\	2c\	[2f\	.	.
=129	=129	=129	=129	=129	=129
1D	4A\]	1d	4f\]	0A_	0a_
.	4G\	.	4e\	.	.
.	4F\	.	4d\	.	.
.	4E\	.	4c\	.	.
1D	1F	2.A/	4d\	.	.
.	.	.	4e\	.	.
.	.	.	4f\	.	.
.	.	4B\	4d\	.	.
=130	=130	=130	=130	=130	=130
0AAl	0El	0cl	0el	0A]	0a]
==	==	==	==	==	==
*-	*-	*-	*-	*-	*-
!!!RDF**kern: l=long note in original notation
!!!RDF**kern: i=editorial accidental
!!!ENC:	Will Watson 08/09/2011
!!!END:	2011/09/08/
!!!EED:	Jesse Rodin
!!!EEV:	2011/11/02/
!!attribution-level@Jos: 4 (questionable)
!!!ONB:	Translated from MusicXML and edited on 2011/11/02/ by Craig Sapp
!!muse2ps: C^@{COA}?\n@{SCT}^i2I150v95,95,95,95,95,130Q16
